X: 444
T: Wuzai nimingxi xincao sui
L: 1/8
M: 2/4
K: G
e dB2 [I:setbarnb 1]| 
B AE2 | 
E e d B | 
e4 | 
e dB2 | 
B A E E | 
E e B G | 
A4 |]

@@@ Tune index: 9318
